X:1
T:James Gibb editions
T:Thou didst leave Thy throne - Barnby
%%score [ ( 1 2 ) ( 3 4 ) ]
L:1/8
Q:1/4=90
M:4/4
K:Eb
V:1 treble nm="Midi_74"
V:2 treble 
V:3 bass nm="Midi_74"
V:4 bass 
V:1
"^Veni, Domine Jesu (10 8. 11 8. 88)""^Emily Steele Elliot\n(1836-97)""^Thou didst leave Thy throne""^Joseph Barnby\n(1838-96)" GG | %1
w: |
 A2 B2 G2 cc | B2 F2 G2 || BB | e2 dc d2 c2 | B6 ||[M:4/4] BB | !courtesy!_A2 G^F G2 BB | %8
w: |||||||
 c2 ((Bc)) d2 || ff | e2 dc d2"^1" c2 | B4 ||"^Refrain" B4 |!p! B2 cB A2 e2 | !>!e4 B2 ||!pp! GG | %16
w: ||||O|come to my heart, Lord|Je- sus,|There is|
 E2 DE F2 G2 | E6 || A4 G4 |] %19
w: room in my heart for|Thee.|A- men.|
V:2
 EE | F2 F2 E2 GG | F2 D2 E2 || FF | E2 GG F2 E2 | D6 ||[M:4/4] FF | E2 DD D2 GG | G2 F2 F2 || AA | %10
 G2 FE F2 E2 | D4 || B4 | G2 GG A2 A2 | G4 E2 || EE | B,2 B,B, D2 D2 | E6 || E4 E4 |] %19
V:3
 B,B, | C2 B,2 B,2"^1" EE | B,2 B,2 B,2 || B,B, | G,2 G,C =A,2 A,2 | B,6 ||[M:4/4] DD | %7
 C2 CC B,2 DD | C2 E2 D2 || B,B, | B,2 B,B, =A,2 A,2 | B,4 || %12
"^1 Thou didst leave Thy throne and Thy kingly crown,\nWhen Thou camest to earth for me;\nBut in Bethlehem's home was there found no room\nFor Thy holy nativity.\n\nR: O come to my heart, Lord Jesus,\nThere is room in my heart for Thee.\n\n2 Heaven's arches rang when the angels sang,\nProclaiming Thy royal degree;\nBut of lowly birth didst Thou come to earth,\nAnd in great humility. R:\n\n3 The foxes found rest, and the birds their nest\nIn the shade of the forest tree;\nBut Thy couch was the sod, O Thou Son of God,\nIn the deserts of Galilee. R:" B,4 | %13
!p! _D2 DD C2 C2 | B,4 G,2 || %15
!pp!"^4 Thou camest, O Lord, with the living word\nThat should set Thy people free;\nBut with mocking scorn, and with crown of thorn,\nThey bore Thee to Calvary. R:\n\n5 When the heavens shall ring, and the angels sing,\nAt Thy coming to victory,\nLet Thy voice call me home, saying \"Yet there is room,\nThere is room at My side for thee.\"\nMy heart shall rejoice, Lord Jesus, \nWhen Thou comest and callest for me." B,B, | %16
 G,2 F,G, A,2 B,2 | G,6 || C4 B,4 |] %19
V:4
 E,E, | E,2 D,2 E,2 C,C, | D,2 B,,2 E,2 || D,D, | C,2 E,E, F,2 F,2 | B,,6 ||[M:4/4] B,,B,, | %7
 C,2 D,D, G,2 G,G, | E,2 F,2 B,2 || D,D, | E,2 F,G, F,2 F,2 | B,4 || B,4 | E,2 E,E, E,2 E,2 | %14
 E,4 E,2 || E,E, | B,,2 B,,B,, B,,2 B,,2 | E,6 || A,,4 E,4 |] %19

